X: 35805
T: Salsbury Girls
R: reel
M: 4/4
K: Eminor
|:E2ED EDEF|G2G2 F2B2|BAGF G~E3|BAG2 F3B|
AGAB A2B2|cAG2 BGF2|FGAB c2B2|1 AGFG E3B:|2 AGFG E3d||
|:e~B3 eBef|g2B2 c3A|B~E3 A2AG|ABcA Bdef|
gafg e~B3|c2A2 B3G|ABAG FEFG|1 AGFG E3d:|2 AGFG E3B||

